!!!!SEGMENT: pl-wtm--r-995--004_krogulski-jozef-wladyslaw--msza-pasterska-credo.krn
!!!cenid: 18xx:2086
!!!COM: Krogulski, Józef Władysław
!!!COM-rismid: pe30001797
!!!CDT: 1815/10/04-1842/01/09
!!!CNT: Polish
!!!OPR: Msza pasterska
!!!OTL: Credo
!!!OMV: 004
!!!PDT:
!!!AGN: Sacred; Mass
!!!SMS-siglum: PL-Wtm
!!!SMS-shelfmark: R 995
!!!SMS-shelfwork: 001-004 M
!!!SMS-variant:
!!!SMS-altvar:
!!!NIFC-rismid: 1001083272
!!!URL-scan: http://repozytorium.nifc.pl/skany/pl-wtm-nut--r995
!!!ONB-nifc: UWAGA: części Mszy: 1. Kyrie, 2. Gloria, 3. Graduale, 4. Credo, 5. Offertorium, 6. Sanctus, 7. Benedictus, 8. Agnus Dei, 9. Dona nobis
!!!OMD: Allº moderato.
**kern	**kern	**dynam	**kern	**dynam	**kern	**text	**dynam	**kern	**text	**dynam	**kern	**text	**dynam
*part5	*part5	*part5	*part4	*part4	*part3	*part3	*part3	*part2	*part2	*part2	*part1	*part1	*part1
*staff6	*staff5	*	*staff4	*	*staff3	*staff3	*	*staff2	*staff2	*	*staff1	*staff1	*
*I"Organ	*I"Organ	*	*I"Baſso	*	*I"Tenore	*	*	*I"[Sopra] 2	*	*	*I"Sopra 1.	*	*
*I'org	*I'org	*	*I'B	*	*I'T	*	*	*I'S 2	*	*	*I'S	*	*
*clefF4	*clefG2	*	*clefF4	*	*clefG2	*	*	*clefG2	*	*	*clefG2	*	*
*	*	*	*	*	*ITrd7c12	*	*	*	*	*	*	*	*
*k[f#]	*k[f#]	*	*k[f#]	*	*k[f#]	*	*	*k[f#]	*	*	*k[f#]	*	*
*G:	*G:	*	*G:	*	*G:	*	*	*G:	*	*	*G:	*	*
*M3/4	*M3/4	*	*M3/4	*	*M3/4	*	*	*M3/4	*	*	*M3/4	*	*
=1	=1	=1	=1	=1	=1	=1	=1	=1	=1	=1	=1	=1	=1
*all\right	*all\right	*	*all\right	*	*all\right	*	*	*all\right	*	*	*all\right	*	*
!	!	!LO:DY:b:rj	!	!LO:DY:b:rj	!	!	!LO:DY:b:rj	!	!	!LO:DY:b:rj	!	!	!LO:DY:b:rj
4B 4G\	4d/	f	4G\	f	4B\	.	f	4d/	.	f	4d/	Cre-	f
4B 4G\	4g 4d/	.	4G\	.	4B\	.	.	4d/	.	.	4g/	-do	.
4B 4G\	4b 4d/	.	4G\	.	4B\	.	.	4d/	.	.	4b/	in	.
=2	=2	=2	=2	=2	=2	=2	=2	=2	=2	=2	=2	=2	=2
*2\right	*	*	*2\right	*	*2\right	*	*	*	*	*	*2\right	*	*
2.B 2.G\	2.dd 2.d/	.	2G\	.	2B\	.	.	2d/	.	.	2dd\	u-	.
.	.	.	4G\	.	4B\	.	.	4d/	.	.	4dd\	-num	.
=3	=3	=3	=3	=3	=3	=3	=3	=3	=3	=3	=3	=3	=3
*	*^	*	*	*	*	*	*	*	*	*	*	*	*
*2\left	*	*2\right	*	*	*	*	*	*	*	*	*	*	*	*
2.A#X 2.G\	4dd/	2.e\	.	2.G\	.	2.A#X/	.	.	2.e/	.	.	(4dd\	De-	.
.	4cc#X/	.	.	.	.	.	.	.	.	.	.	4cc#X\	.	.
.	4ee/	.	.	.	.	.	.	.	.	.	.	4ee\)	.	.
*	*v	*v	*	*	*	*	*	*	*	*	*	*	*	*
=4	=4	=4	=4	=4	=4	=4	=4	=4	=4	=4	=4	=4	=4
4B 4G\	4dd 4g\	.	4G\	.	4B\	.	.	4g/	.	.	4dd\	-um	.
4r	4r	.	4r	.	4r	.	.	4r	.	.	4r	.	.
4r	4r	.	4r	.	4r	.	.	4r	.	.	4r	.	.
=5	=5	=5	=5	=5	=5	=5	=5	=5	=5	=5	=5	=5	=5
*^	*^	*	*	*	*	*	*	*	*	*	*	*	*
*	*2\right	*	*	*	*	*	*	*	*	*	*	*	*	*	*
2d/	2.D\	4an/	2.f#\	.	2D\	.	(2d\	.	.	[2f#/	.	.	(4a/	Pa-	.
.	.	4cc/	.	.	.	.	.	.	.	.	.	.	4ccn/)	.	.
8d/L	.	8b/L	.	.	4D\	.	8d\L	.	.	4f#/]	.	.	8b/L	-trem	.
8c/J	.	8a/J	.	.	.	.	8c\J)	.	.	.	.	.	8a/J	.	.
*v	*v	*	*	*	*	*	*	*	*	*	*	*	*	*	*
*	*v	*v	*	*	*	*	*	*	*	*	*	*	*	*
=6	=6	=6	=6	=6	=6	=6	=6	=6	=6	=6	=6	=6	=6
4B 4G\	4dd 4g\	.	4G\	.	4B\	.	.	4g/	.	.	4dd\	om-	.
4d 4G\	4b 4g\	.	4G\	.	4d\	.	.	4g/	.	.	4b\	-ni	.
4B 4G\	4g\	.	4G\	.	4B\	.	.	4g/	.	.	4g\	po-	.
=7	=7	=7	=7	=7	=7	=7	=7	=7	=7	=7	=7	=7	=7
*^	*^	*	*	*	*	*	*	*	*	*	*	*	*
2c/	2C\	2ee/	2g\	.	(2C/	.	(2c\	.	.	(2g/	.	.	(2ee\	-ten-	.
4A/	4D\	8dd/L	4f#\	.	4D/)	.	4A\)	.	.	4f#/)	.	.	8dd\L	.	.
.	.	8cc/J	.	.	.	.	.	.	.	.	.	.	8cc\J)	.	.
*v	*v	*	*	*	*	*	*	*	*	*	*	*	*	*	*
*	*v	*v	*	*	*	*	*	*	*	*	*	*	*	*
=8	=8	=8	=8	=8	=8	=8	=8	=8	=8	=8	=8	=8	=8
2B 2G\	2b 2g/	.	2G\	.	2B\	.	.	2g/	.	.	2b\	-tem	.
4r	4r	.	4r	.	4r	.	.	4r	.	.	4r	.	.
=9	=9	=9	=9	=9	=9	=9	=9	=9	=9	=9	=9	=9	=9
4B 4G\	4d/	.	4G\	.	4B\	.	.	4d/	.	.	4d/	Cre-	.
4B 4G\	4g 4d/	.	4G\	.	4B\	.	.	4d/	.	.	4g/	-do	.
4B 4G\	4b 4d/	.	4G\	.	4B\	.	.	4d/	.	.	4b/	in	.
!!LO:LB:g=original
=10	=10	=10	=10	=10	=10	=10	=10	=10	=10	=10	=10	=10	=10
2.B 2.G\	[2.dd 2.d/	.	2G\	.	2B\	.	.	2d/	.	.	2dd\	u-	.
.	.	.	4G\	.	4B\	.	.	4d/	.	.	4dd\	-num	.
=11	=11	=11	=11	=11	=11	=11	=11	=11	=11	=11	=11	=11	=11
*	*^	*	*	*	*	*	*	*	*	*	*	*	*
*2\left	*	*	*	*	*	*	*	*	*	*	*	*	*	*
2.A#X 2.G\	4dd/]	2.e\	.	2.G\	.	2.A#X/	.	.	2.e/	.	.	(4dd\	De-	.
.	4cc#X/	.	.	.	.	.	.	.	.	.	.	4cc#X\	.	.
.	4ee/	.	.	.	.	.	.	.	.	.	.	4ee\)	.	.
*	*v	*v	*	*	*	*	*	*	*	*	*	*	*	*
=12	=12	=12	=12	=12	=12	=12	=12	=12	=12	=12	=12	=12	=12
4B 4G\	4dd 4g\	.	4G\	.	4B\	.	.	4g/	.	.	4dd\	-um	.
4r	4r	.	4r	.	4r	.	.	4r	.	.	4r	.	.
!	!	!LO:DY:b:rj	!	!	!	!	!	!	!	!	!	!	!
4B 4G\	4g/	p	4G\	.	4B\	.	.	4g/	.	.	4g/	Fac-	.
=13	=13	=13	=13	=13	=13	=13	=13	=13	=13	=13	=13	=13	=13
*^	*^	*	*	*	*	*	*	*	*	*	*	*	*
*	*2\right	*	*	*	*	*	*	*	*	*	*	*	*	*	*
2d/	2.D\	4a/	2.f#\	.	2D\	.	2d\	.	.	2f#/	.	.	(4a/	-to-	.
.	.	4ccn/	.	.	.	.	.	.	.	.	.	.	4ccn\)	.	.
(<8d/L	.	8b/L	.	.	4D\	.	8d\L	.	.	4f#/	.	.	8b/L	-rem	.
8c/J)	.	8a/J	.	.	.	.	8c\J	.	.	.	.	.	8a/J	.	.
*v	*v	*	*	*	*	*	*	*	*	*	*	*	*	*	*
*	*v	*v	*	*	*	*	*	*	*	*	*	*	*	*
=14	=14	=14	=14	=14	=14	=14	=14	=14	=14	=14	=14	=14	=14
4B 4G\	4dd 4g/	.	4G\	.	4B\	.	.	4g/	.	.	4dd\	Ca-	.
4d 4G\	4b 4g/	.	4G\	.	4d\	.	.	4g/	.	.	4b\	-eli	.
4B 4G\	4g/	.	4G\	.	4B\	.	.	4g/	.	.	4g\	et	.
=15	=15	=15	=15	=15	=15	=15	=15	=15	=15	=15	=15	=15	=15
*^	*^	*	*	*	*	*	*	*	*	*	*	*	*
2.c/	2C\	4a/	2e\	.	(2C/	.	2.c\	.	.	(2e/	.	.	(4a/	ter-	.
.	.	4cc/	.	.	.	.	.	.	.	.	.	.	4cc/)	.	.
.	4D\	8b/L	4f#\	.	4D/)	.	.	.	.	4f#/)	.	.	8b/L	.	.
.	.	8a/J	.	.	.	.	.	.	.	.	.	.	8a/J	.	.
*v	*v	*	*	*	*	*	*	*	*	*	*	*	*	*	*
*	*v	*v	*	*	*	*	*	*	*	*	*	*	*	*
=16	=16	=16	=16	=16	=16	=16	=16	=16	=16	=16	=16	=16	=16
4B 4G\	4g/	.	4G\	.	4B\	.	.	4g/	.	.	4g/	-ra	.
4G\	4g/	.	4G\	.	4G/	.	.	4g/	.	.	4g/	vi-	.
4G\	4g/	.	4G\	.	4G/	.	.	4g/	.	.	4g/	-si-	.
=17	=17	=17	=17	=17	=17	=17	=17	=17	=17	=17	=17	=17	=17
2G 2E\	2cc 2g/	.	4.E\	.	4.G/	.	.	4.g/	.	.	4.cc\	-bi-	.
.	.	.	8E\	.	8G/	.	.	8g/	.	.	8cc\	-li-	.
4G 4D\	4b 4g/	.	4D\	.	4G/	.	.	4g/	.	.	4b\	-um	.
=18	=18	=18	=18	=18	=18	=18	=18	=18	=18	=18	=18	=18	=18
*^	*^	*	*	*	*	*	*	*	*	*	*	*	*
4.G/	2C\	2ee/	4.e\	.	4.C/	.	4.G/	.	.	4.e/	.	.	4.ee\	om-	.
8A/	.	.	8r	.	8C/	.	8A\	.	.	8f#/	.	.	8ee\	-ni-	.
4B/	4BB\	4dd 4g/	4ryy	.	8BB/	.	8B\	.	.	8g/	.	.	8dd\	-um	.
!	!	!	!	!	!	!	!	!	!	!	!	!	!LO:TX:a:t=d.	!	!
.	.	.	.	.	8BB/	.	8d\	.	.	8g/	.	.	8dd\	et	.
*v	*v	*	*	*	*	*	*	*	*	*	*	*	*	*	*
=19	=19	=19	=19	=19	=19	=19	=19	=19	=19	=19	=19	=19	=19	=19
2.A 2.AA\	4.dd/	2.g 2.e\	.	2AA/	.	2e\	.	.	2g/	.	.	(4.dd\	in-	.
.	8cc#X/L	.	.	.	.	.	.	.	.	.	.	8cc#X\)	.	.
.	8b/	.	.	8AA/	.	8e\	.	.	8g/	.	.	8b\	-vi-	.
.	8cc#/J	.	.	8AA/	.	8e\	.	.	8g/	.	.	8cc#\	-si-	.
!!LO:LB:g=original
=20	=20	=20	=20	=20	=20	=20	=20	=20	=20	=20	=20	=20	=20	=20
[2.A [>2.D\	2ryy	2dd 2f#\	.	8.D\	.	8.d\	.	.	8.f#/	.	.	8.dd\	-bi-	.
.	.	.	.	16D\	.	16d\	.	.	16f#/	.	.	16dd\	-li-	.
.	.	.	.	4D\	.	4d\	.	.	4f#/	.	.	4dd\	-um	.
.	8dd/L	4f#\	.	8D\	.	8d\	.	.	8f#/	.	.	8dd\	Et	.
.	8ff#/J	.	.	8D\	.	8d\	.	.	8f#/	.	.	8ff#\	in	.
=21	=21	=21	=21	=21	=21	=21	=21	=21	=21	=21	=21	=21	=21	=21
2.A_ 2.D\_>	4.ee/	2.g\	.	2D\	.	2c#X\	.	.	2g/	.	.	(4.ee\	u-	.
.	8b/L	.	.	.	.	.	.	.	.	.	.	8b\)	.	.
.	8cc#X/	.	.	4D\	.	4e\	.	.	4g/	.	.	8cc#X\L	-num	.
.	8a/J	.	.	.	.	.	.	.	.	.	.	8a\J	.	.
=22	=22	=22	=22	=22	=22	=22	=22	=22	=22	=22	=22	=22	=22	=22
!LO:N:vis=2	!	!	!	!	!	!	!	!	!	!	!	!	!	!
2.A_ 2.D\_>	8dd/L	2.f#\	.	8D\	.	8d\	.	.	8f#/	.	.	8dd\	Do-	.
.	16cc#X/L	.	.	8D\	.	8d\	.	.	8f#/	.	.	16cc#X\LL	-mi-	.
.	16b/JJ	.	.	.	.	.	.	.	.	.	.	16b\JJ	.	.
.	4a/	.	.	4D\	.	4d\	.	.	4f#/	.	.	4a/	-num	.
.	4dd/	.	.	8D\	.	8d\	.	.	8f#/	.	.	8dd\	Et	.
.	.	.	.	8D\	.	8f#\	.	.	8f#/	.	.	8dd\	in	.
=23	=23	=23	=23	=23	=23	=23	=23	=23	=23	=23	=23	=23	=23	=23
2.A_ 2.D\_>	2cc#X/	2.g\	.	2D\	.	(4.e\	.	.	2g/	.	.	2cc#X\	u-	.
.	.	.	.	.	.	8B\)	.	.	.	.	.	.	.	.
.	4ee/	.	.	4D\	.	8c#X\L	.	.	4g/	.	.	4ee\	-num	.
.	.	.	.	.	.	8A\J	.	.	.	.	.	.	.	.
*	*v	*v	*	*	*	*	*	*	*	*	*	*	*	*
=24	=24	=24	=24	=24	=24	=24	=24	=24	=24	=24	=24	=24	=24
2.A] 2.D\]	2.dd 2.f#\	.	8.D\	.	8.d\	.	.	8.f#/	.	.	8.dd\	Do-	.
.	.	.	16D\	.	16d\	.	.	16f#/	.	.	16dd\	-mi-	.
.	.	.	4D\	.	4d\	.	.	4f#/	.	.	4dd\	-num	.
.	.	.	4r	.	4r	.	.	4r	.	.	4r	.	.
=25	=25	=25	=25	=25	=25	=25	=25	=25	=25	=25	=25	=25	=25
[2.A [>2.AA\	2.f# 2.d/	.	2AA/	.	2d\	.	.	2a/	.	.	2ff#\	Je-	.
.	.	.	4AA/	.	4d\	.	.	4a/	.	.	4ff#\	-sum	.
=26	=26	=26	=26	=26	=26	=26	=26	=26	=26	=26	=26	=26	=26
2.A] 2.AA\]	2.g 2.e 2.c#X/	.	2.AA/	.	2.e\	.	.	2.g/	.	.	8gg\L	Chri-	.
.	.	.	.	.	.	.	.	.	.	.	8ee\	.	.
.	.	.	.	.	.	.	.	.	.	.	8b\	.	.
.	.	.	.	.	.	.	.	.	.	.	8ee\	.	.
.	.	.	.	.	.	.	.	.	.	.	8cc#X\	.	.
.	.	.	.	.	.	.	.	.	.	.	8a\J	.	.
=27	=27	=27	=27	=27	=27	=27	=27	=27	=27	=27	=27	=27	=27
[2.A 2.D\	2.f# 2.d/	.	4D\	.	4d\	.	.	4f#/	.	.	4dd\	-stum	.
.	.	.	8r	.	8r	.	.	8r	.	.	8r	.	.
.	.	.	8D\	.	8A/	.	.	8d/	.	.	8f#/	Fi-	.
.	.	.	8D\	.	8A/	.	.	8d/	.	.	8f#/	-li-	.
.	.	.	8D\	.	8A/	.	.	8d/	.	.	8f#/	-um	.
=28	=28	=28	=28	=28	=28	=28	=28	=28	=28	=28	=28	=28	=28
*	*^	*	*	*	*	*	*	*	*	*	*	*	*
2.A_ 2.C#X\	2a/	2.e\	.	4.C#X/	.	4.A/	.	.	4.e/	.	.	4.a/	De-	.
.	.	.	.	8C#/	.	8A/	.	.	8e/	.	.	8a/	-i	.
.	8a/L	.	.	8C#/	.	8A/	.	.	8e/	.	.	8a/	u-	.
.	8g/J	.	.	8C#/	.	8A/	.	.	8e/	.	.	8a/	-ni-	.
*	*v	*v	*	*	*	*	*	*	*	*	*	*	*	*
!!LO:PB:g=original
=29	=29	=29	=29	=29	=29	=29	=29	=29	=29	=29	=29	=29	=29
2.A_ 2.D\	2.f# 2.d/	.	8.D\	.	8.A/	.	.	8.d/	.	.	8.f#/	-ge-	.
.	.	.	16D\	.	16A/	.	.	16d/	.	.	16f#/	-ni-	.
.	.	.	4D\	.	4A/	.	.	4d/	.	.	4f#/	-tum	.
.	.	.	8D\	.	8A/	.	.	8d/	.	.	8f#/	Et	.
.	.	.	8D\	.	8A/	.	.	8d/	.	.	8f#/	ex	.
=30	=30	=30	=30	=30	=30	=30	=30	=30	=30	=30	=30	=30	=30
*	*^	*	*	*	*	*	*	*	*	*	*	*	*
2.A_ 2.C#X\	2a/	2.e\	.	4.C#X/	.	4.A/	.	.	4.e/	.	.	4.a/	Pa-	.
.	.	.	.	8C#/	.	8A/	.	.	8e/	.	.	8a/	-tre	.
.	8a/L	.	.	8C#/	.	8A/	.	.	8e/	.	.	8a/	na-	.
.	8g/J	.	.	8C#/	.	8A/	.	.	8e/	.	.	8g/	-tum	.
*	*v	*v	*	*	*	*	*	*	*	*	*	*	*	*
=31	=31	=31	=31	=31	=31	=31	=31	=31	=31	=31	=31	=31	=31
2.A_ [2.D\	2.f# 2.d/	.	2D\	.	2A/	.	.	2d/	.	.	2f#/	an-	.
.	.	.	4D\	.	4A/	.	.	4d/	.	.	4f#/	-te	.
=32	=32	=32	=32	=32	=32	=32	=32	=32	=32	=32	=32	=32	=32
2.A] 2.D\]	2.a 2.f# 2.d/	.	4.D\	.	4.d\	.	.	4.f#/	.	.	4.a/	o-	.
.	.	.	8D\	.	8d\	.	.	8f#/	.	.	8a/	-mni-	.
.	.	.	4D\	.	4d\	.	.	4f#/	.	.	4a/	-a	.
=33	=33	=33	=33	=33	=33	=33	=33	=33	=33	=33	=33	=33	=33
2d 2D\	2dd 2f#\	.	2D\	.	2d\	.	.	2f#/	.	.	2dd\	se-	.
4D\	4d/	.	4D\	.	4D/	.	.	4d/	.	.	4d/	-cu-	.
=34	=34	=34	=34	=34	=34	=34	=34	=34	=34	=34	=34	=34	=34
2D;\	2d;/	.	2D;\	.	2D;/	.	.	2d;/	.	.	2d;/	-la	.
4r	4r	.	4r	.	4r	.	.	4r	.	.	4r	.	.
=35	=35	=35	=35	=35	=35	=35	=35	=35	=35	=35	=35	=35	=35
2.G 2.BB\	2.g 2.d/	.	4BB/	.	4G/	.	.	4d/	.	.	4g/	De-	.
.	.	.	4BB/	.	4G/	.	.	4d/	.	.	4g/	-um	.
.	.	.	4BB/	.	4G/	.	.	4d/	.	.	4g/	de	.
=36	=36	=36	=36	=36	=36	=36	=36	=36	=36	=36	=36	=36	=36
2G 2C\	2g 2e/	.	2C/	.	2G/	.	.	2e/	.	.	2g/	De-	.
4G 4BB\	4g 4d/	.	4BB/	.	4G/	.	.	4d/	.	.	4g/	-o	.
=37	=37	=37	=37	=37	=37	=37	=37	=37	=37	=37	=37	=37	=37
4A 4AA\	4cc 4e\	.	4AA/	.	4A\	.	.	4e/	.	.	4cc\	lu-	.
4c 4A\	4a 4e\	.	4A\	.	4c\	.	.	4e/	.	.	4a\	-men	.
4c 4A\	4dd 4f#\	.	4A\	.	4c\	.	.	4f#/	.	.	4dd\	de	.
=38	=38	=38	=38	=38	=38	=38	=38	=38	=38	=38	=38	=38	=38
*^	*	*	*	*	*	*	*	*	*	*	*	*	*
8.B/L	4G\	8.ddL 8.g\	.	8.G\	.	8.B\	.	.	8.g/	.	.	8.dd\	lu-	.
16d/Jk	.	16b\Jk	.	16G\	.	16d\	.	.	16g/	.	.	16b\	-mi-	.
4B/	4G\	4g/	.	4G\	.	4B\	.	.	4g/	.	.	4g/	-ne	.
4r	4ryy	4r	.	4r	.	4r	.	.	4r	.	.	4r	.	.
*v	*v	*	*	*	*	*	*	*	*	*	*	*	*	*
!!LO:LB:g=original
=39	=39	=39	=39	=39	=39	=39	=39	=39	=39	=39	=39	=39	=39
2.G\	2.g/	.	2G\	.	2G/	.	.	2g/	.	.	2g/	De-	.
.	.	.	4G\	.	4G/	.	.	4g/	.	.	4g/	-um	.
=40	=40	=40	=40	=40	=40	=40	=40	=40	=40	=40	=40	=40	=40
4B-X\	4b-X/	.	4B-X\	.	4B-X/	.	.	4b-X/	.	.	4b-X/	ve-	.
4G\	4g/	.	4G\	.	4G/	.	.	4g/	.	.	4g/	-rum	.
4E-X\	4e-X/	.	4E-X\	.	4E-X/	.	.	4e-X/	.	.	4e-X/	de	.
=41	=41	=41	=41	=41	=41	=41	=41	=41	=41	=41	=41	=41	=41
2D\	2d/	.	2D\	.	2D/	.	.	2d/	.	.	2d/	De-	.
4C#X\	4c#X/	.	4C#X\	.	4C#X/	.	.	4c#X/	.	.	4c#X/	-o	.
=42	=42	=42	=42	=42	=42	=42	=42	=42	=42	=42	=42	=42	=42
2.D;\	2.d;/	.	2.D;\	.	2.D;/	.	.	2.d;/	.	.	2.d;/	ve-	.
=43	=43	=43	=43	=43	=43	=43	=43	=43	=43	=43	=43	=43	=43
4D\	4d/	.	4D\	.	4D/	.	.	4d/	.	.	4d/	-ro	.
4r;	4r;	.	4r;	.	4r;	.	.	4r;	.	.	4r;	.	.
=||	=||	=||	=||	=||	=||	=||	=||	=||	=||	=||	=||	=||	=||
!!!OMD: Andante con moto.
*k[b-e-]	*k[b-e-]	*	*k[b-e-]	*	*k[b-e-]	*	*	*k[b-e-]	*	*	*k[b-e-]	*	*
*M3/4	*M3/4	*	*M3/4	*	*M3/4	*	*	*M3/4	*	*	*M3/4	*	*
!	!	!LO:DY:b:rj	!	!LO:DY:b:rj	!	!	!LO:DY:b:rj	!	!	!LO:DY:b:rj	!	!	!LO:DY:b:rj
4F 4BB-\	4dd 4b-\	p	4BB-/	p	4d\	.	p	4b-\	.	p	4ff\	Et	p
=44	=44	=44	=44	=44	=44	=44	=44	=44	=44	=44	=44	=44	=44
2.F 2.BB-\	4.cc 4.a\	.	2BB-/	.	(4.c\	.	.	(4.a/	.	.	2ff\	in-	.
.	16ddLL 16b-\	.	.	.	16d\LL	.	.	16b-/LL	.	.	.	.	.
.	16ccJJ 16a\	.	.	.	16c\JJ)	.	.	16a/JJ)	.	.	.	.	.
.	8b-L 8g\	.	4BB-/	.	8B-\L	.	.	8g/L	.	.	4ff\	-car-	.
.	8ccJ 8a\	.	.	.	8c\J	.	.	8a/J	.	.	.	.	.
=45	=45	=45	=45	=45	=45	=45	=45	=45	=45	=45	=45	=45	=45
[2.B- [2.BB-\	8.ddL 8.b-\	.	8.BB-/	.	8.d\	.	.	8.b-/	.	.	8.ff\	-na-	.
.	16b-Jk 16g\	.	16BB-/	.	16B-\	.	.	16f/	.	.	16ff\	-tus	.
.	4f 4d/	.	4BB-/	.	4F/	.	.	4d/	.	.	8ff\L	est	.
.	.	.	.	.	.	.	.	.	.	.	8een\J	.	.
.	4b- 4d/	.	4BB-/	.	4d\	.	.	4b-\	.	.	8gg\L	de	.
.	.	.	.	.	.	.	.	.	.	.	8ff\J	.	.
=46	=46	=46	=46	=46	=46	=46	=46	=46	=46	=46	=46	=46	=46
*	*^	*	*	*	*	*	*	*	*	*	*	*	*
!	!LO:N:vis=2.	!	!	!	!	!	!	!	!	!	!	!	!	!
2.B-_ 2.BB-\_	2g 2e-/	2ryy	.	4.BB-/	.	4.e-\	.	.	4.g/	.	.	8ee-X\L	spi-	.
.	.	.	.	.	.	.	.	.	.	.	.	8dd\	.	.
.	.	.	.	.	.	.	.	.	.	.	.	8ee-\J	.	.
.	.	.	.	8BB-/	.	8e-\	.	.	8g/	.	.	8cc\	-ri-	.
.	8g/L	4e-\	.	4BB-/	.	8c\L	.	.	4e-/	.	.	8g/L	-tu	.
.	8a/J	.	.	.	.	8F\J	.	.	.	.	.	8a/J	.	.
=47	=47	=47	=47	=47	=47	=47	=47	=47	=47	=47	=47	=47	=47	=47
2B-] 2BB-\]	8b-/L	4d\	.	4BB-/	.	4B-\	.	.	4d/	.	.	8b-/L	san-	.
.	16a/L	.	.	.	.	.	.	.	.	.	.	16a/L	.	.
.	16g/JJ	.	.	.	.	.	.	.	.	.	.	16g/JJ	.	.
.	4f/	4d\	.	4BB-/	.	4B-\	.	.	4d/	.	.	4f/	-cto	.
*	*clefF4	*	*	*	*	*	*	*	*	*	*	*	*	*
4F 4BB-\	4d 4B-\	4ryy	.	4BB-/	.	4d\	.	.	4f/	.	.	4b-\	et	.
*	*v	*v	*	*	*	*	*	*	*	*	*	*	*	*
!!LO:PB:g=original
=48	=48	=48	=48	=48	=48	=48	=48	=48	=48	=48	=48	=48	=48
[2.F [>2.BB-\	4.c 4.A\	.	2BB-/	.	(4.c\	.	.	2f/	.	.	(4.a/	in-	.
.	16dLL 16B-\	.	.	.	16d\LL	.	.	.	.	.	16b-/LL	.	.
.	16cJJ 16A\	.	.	.	16c\JJ)	.	.	.	.	.	16a/JJ)	.	.
.	8B-L 8G\	.	4BB-/	.	8B-\L	.	.	4f/	.	.	8g/L	-car-	.
.	8cJ 8A\	.	.	.	8c\J	.	.	.	.	.	8a/J	.	.
=49	=49	=49	=49	=49	=49	=49	=49	=49	=49	=49	=49	=49	=49
2F] 2BB-\]	4d 4B-\	.	8.BB-/	.	8.d\	.	.	8.f/	.	.	8.b-\	-na-	.
.	.	.	16BB-/	.	16B-\	.	.	16f/	.	.	16f/	-tus	.
*	*clefG2	*	*	*	*	*	*	*	*	*	*	*	*
.	4f 4d/	.	4BB-/	.	4F/	.	.	4f/	.	.	8dd\L	est	.
.	.	.	.	.	.	.	.	.	.	.	8cc#X\J	.	.
4B- 4BB-\	4b- 4d/	.	4BB-/	.	4F/	.	.	4f/	.	.	8ee-\L	de	.
.	.	.	.	.	.	.	.	.	.	.	8dd\J	.	.
=50	=50	=50	=50	=50	=50	=50	=50	=50	=50	=50	=50	=50	=50
[2.BB-/	2g 2e-/	.	4.BB-/	.	4.G/	.	.	4.e-/	.	.	8ccn\L	spi-	.
.	.	.	.	.	.	.	.	.	.	.	8bn\	.	.
.	.	.	.	.	.	.	.	.	.	.	8cc\J	.	.
.	.	.	8BB-/	.	8G/	.	.	8e-/	.	.	8g/	-ri-	.
.	4e- 4c/	.	4BB-/	.	8c\L	.	.	4e-/	.	.	8a/L	-tu-	.
.	.	.	.	.	8A\J	.	.	.	.	.	8f/J	.	.
=51	=51	=51	=51	=51	=51	=51	=51	=51	=51	=51	=51	=51	=51
2.BB-/_	2d 2B-/	.	4BB-/	.	4B-\	.	.	4d/	.	.	8.b-\L	-san-	.
.	.	.	.	.	.	.	.	.	.	.	16cc\Jk	.	.
.	.	.	4BB-/	.	4B-\	.	.	4d/	.	.	4dd\	-cto	.
.	4f 4d 4B-/	.	8.BB-/	.	8.B-\	.	.	8.d/	.	.	8.f/	ex	.
.	.	.	16BB-/	.	16B-\	.	.	16d/	.	.	16f/	Ma-	.
=52	=52	=52	=52	=52	=52	=52	=52	=52	=52	=52	=52	=52	=52
2.BB-/_	2.f 2.e- 2.c 2.A/	.	4.BB-/	.	4.A\	.	.	4.e-/	.	.	4.f/	-ri-	.
.	.	.	8BB-/	.	8A\	.	.	8e-/	.	.	8f/	-a	.
.	.	.	8.BB-/	.	8.A\	.	.	8.e-/	.	.	8.f/	Vir-	.
.	.	.	16BB-/	.	16A\	.	.	16e-/	.	.	16f/	-gi-	.
=53	=53	=53	=53	=53	=53	=53	=53	=53	=53	=53	=53	=53	=53
!	!LO:N:vis=2	!	!	!	!	!	!	!	!	!	!	!	!
2.BB-/_	2.f 2.d 2.B-/	.	2BB-/	.	2B-\	.	.	2d/	.	.	2f/	-ne	.
.	.	.	8.BB-/	.	8.F/	.	.	8.d/	.	.	8.f/	ex	.
.	.	.	16BB-/	.	16F/	.	.	16d/	.	.	16f/	Ma-	.
=54	=54	=54	=54	=54	=54	=54	=54	=54	=54	=54	=54	=54	=54
2.BB-/_	2.f 2.e- 2.c 2.A/	.	4.BB-/	.	4.A/	.	.	4.e-/	.	.	4.f/	-ri-	.
.	.	.	8BB-/	.	8A/	.	.	8e-/	.	.	8f/	-a	.
.	.	.	8.BB-/	.	8.A/	.	.	8.e-/	.	.	8.f/	vir-	.
.	.	.	16BB-/	.	16A/	.	.	16e-/	.	.	16f/	-gi-	.
=55	=55	=55	=55	=55	=55	=55	=55	=55	=55	=55	=55	=55	=55
[2.F 2.BB-\_	[2.f [>2.d [2.B-/	.	2BB-/	.	2B-\	.	.	2d/	.	.	2f/	-ne	.
.	.	.	8BB-/	.	8d\	.	.	8d/	.	.	8f/	ex	.
.	.	.	8BB-/	.	8F/	.	.	8d/	.	.	8dd\	Ma-	.
!!LO:LB:g=original
=56	=56	=56	=56	=56	=56	=56	=56	=56	=56	=56	=56	=56	=56
2.F_ 2.BB-\_	2.f_ 2.d_> 2.B-/_	.	4.BB-/	.	4.B-\	.	.	4.d/	.	.	4.b-\	-ri-	.
.	.	.	8BB-/	.	8B-\	.	.	8d/	.	.	8f/	-a	.
.	.	.	8BB-/	.	8d\	.	.	8d/	.	.	8f/	Vir-	.
.	.	.	8BB-/	.	8F/	.	.	8d/	.	.	8dd\	-gi-	.
=57	=57	=57	=57	=57	=57	=57	=57	=57	=57	=57	=57	=57	=57
2.F_ 2.BB-\_	2.f_ 2.d_> 2.B-/_	.	2BB-/	.	2B-\	.	.	2d/	.	.	2b-\	-ne	.
.	.	.	8BB-/	.	8d\	.	.	8d/	.	.	8f/	ex	.
.	.	.	8BB-/	.	8F/	.	.	8d/	.	.	8dd\	Ma-	.
=58	=58	=58	=58	=58	=58	=58	=58	=58	=58	=58	=58	=58	=58
2.F_ 2.BB-\_	2.f_ 2.d_> 2.B-/_	.	4.BB-/	.	4.B-\	.	.	4.d/	.	.	4.b-\	-ri-	.
.	.	.	8BB-/	.	8B-\	.	.	8d/	.	.	8f/	-a	.
.	.	.	8BB-/	.	8d\	.	.	8d/	.	.	8f/	vir-	.
.	.	.	8BB-/	.	8F/	.	.	8d/	.	.	8dd\	-gi-	.
=59	=59	=59	=59	=59	=59	=59	=59	=59	=59	=59	=59	=59	=59
2F] 2BB-;<\]	2f] 2d] 2B-;/]	.	2BB-;/	.	2B-;\	.	.	2d;/	.	.	2b-;\	-ne	.
4r	4r	.	4r	.	4r	.	.	4r	.	.	4r	.	.
=60||	=60||	=60||	=60||	=60||	=60||	=60||	=60||	=60||	=60||	=60||	=60||	=60||	=60||
!!!OMD: Allº moderato.
*k[bnenf#]	*k[bnenf#]	*	*k[bnenf#]	*	*k[bnenf#]	*	*	*k[bnenf#]	*	*	*k[bnenf#]	*	*
*M3/4	*M3/4	*	*M3/4	*	*M3/4	*	*	*M3/4	*	*	*M3/4	*	*
!	!	!LO:DY:b:rj	!	!	!	!	!	!	!	!	!	!	!
[>2.c [>2.A [<2.F# [<2.D\	2.dd 2.a 2.f#\	f	2.r	.	2.r	.	.	2.r	.	.	2.r	.	.
=61	=61	=61	=61	=61	=61	=61	=61	=61	=61	=61	=61	=61	=61
2.c] 2.A] 2.F#] 2.D\]	(8ff#\L	.	2.r	.	2.r	.	.	2.r	.	.	2.r	.	.
.	8ee\	.	.	.	.	.	.	.	.	.	.	.	.
.	8dd\	.	.	.	.	.	.	.	.	.	.	.	.
.	8a\	.	.	.	.	.	.	.	.	.	.	.	.
.	8f#\	.	.	.	.	.	.	.	.	.	.	.	.
.	8a\J)	.	.	.	.	.	.	.	.	.	.	.	.
=62	=62	=62	=62	=62	=62	=62	=62	=62	=62	=62	=62	=62	=62
4B 4G\	4d/	.	4G\	.	4B\	.	.	4d/	.	.	4d/	-Cre-	.
4B 4G\	4g 4d/	.	4G\	.	4B\	.	.	4d/	.	.	4g/	-do	.
4B 4G\	4b 4d/	.	4G\	.	4B\	.	.	4d/	.	.	4b/	in	.
=63	=63	=63	=63	=63	=63	=63	=63	=63	=63	=63	=63	=63	=63
2.B 2.G\	[2.dd 2.d/	.	4.G\	.	4.B\	.	.	4.d/	.	.	4.dd\	spi-	.
.	.	.	8G\	.	8B\	.	.	8d/	.	.	8dd\	-ri-	.
.	.	.	4G\	.	4B\	.	.	4d/	.	.	4dd\	-tum	.
=64	=64	=64	=64	=64	=64	=64	=64	=64	=64	=64	=64	=64	=64
*	*^	*	*	*	*	*	*	*	*	*	*	*	*
*2\left	*	*	*	*	*	*	*	*	*	*	*	*	*	*
2.A#X 2.G\	4dd/]	2.e\	.	2.G\	.	2.A#X/	.	.	2.e/	.	.	(4dd\	san-	.
.	4cc#X/	.	.	.	.	.	.	.	.	.	.	4cc#X\	.	.
.	4ee/	.	.	.	.	.	.	.	.	.	.	4ee\)	.	.
*	*v	*v	*	*	*	*	*	*	*	*	*	*	*	*
=65	=65	=65	=65	=65	=65	=65	=65	=65	=65	=65	=65	=65	=65
!	!LO:SIC:vn=2:s=4g	!	!	!	!	!	!	!	!	!	!	!	!
4B 4G\	4dd 4f#\	.	4G\	.	4B\	.	.	4g/	.	.	4dd\	-ctum	.
4r	4r	.	4r	.	4r	.	.	4r	.	.	4r	.	.
4r	4r	.	4r	.	4r	.	.	4r	.	.	4r	.	.
!!LO:PB:g=original
=66	=66	=66	=66	=66	=66	=66	=66	=66	=66	=66	=66	=66	=66
*^	*^	*	*	*	*	*	*	*	*	*	*	*	*
*	*2\right	*	*	*	*	*	*	*	*	*	*	*	*	*	*
2d/	2.D\	4a/	2.f#\	.	4D\	.	4d\	.	.	4f#/	.	.	4a/	Do-	.
.	.	4ccn/	.	.	4D\	.	4d\	.	.	4f#/	.	.	4ccn\	-mi-	.
8d/L	.	8b/L	.	.	4D\	.	8d\L	.	.	4f#/	.	.	8b\L	-num	.
8c/J	.	8a/J	.	.	.	.	8c\J	.	.	.	.	.	8a\J	.	.
=67	=67	=67	=67	=67	=67	=67	=67	=67	=67	=67	=67	=67	=67	=67	=67
4B/	2.G\	4dd/	2.g\	.	4G\	.	4B\	.	.	4g/	.	.	4dd\	et	.
4d/	.	4b/	.	.	4G\	.	4d\	.	.	4g/	.	.	4b\	vi-	.
4B/	.	4g/	.	.	8G\	.	8B\	.	.	8g/	.	.	8g/	-vi-	.
.	.	.	.	.	8G\	.	8B\	.	.	8g/	.	.	8g/	-fi-	.
*v	*v	*	*	*	*	*	*	*	*	*	*	*	*	*	*
=68	=68	=68	=68	=68	=68	=68	=68	=68	=68	=68	=68	=68	=68	=68
2c 2C\	2ee/	2g\	.	(2C/	.	(2c\	.	.	(2g/	.	.	(2ee\	-can-	.
4A 4D\	8dd/L	4f#\	.	4D/)	.	4A\)	.	.	4f#/)	.	.	8dd\L	.	.
.	8cc/J	.	.	.	.	.	.	.	.	.	.	8cc\J)	.	.
*	*v	*v	*	*	*	*	*	*	*	*	*	*	*	*
=69	=69	=69	=69	=69	=69	=69	=69	=69	=69	=69	=69	=69	=69
2B 2G\	2b 2g/	.	2G\	.	2B\	.	.	2g/	.	.	2b\	-tem	.
4r	4r	.	4r	.	4r	.	.	4r	.	.	4r	.	.
=70	=70	=70	=70	=70	=70	=70	=70	=70	=70	=70	=70	=70	=70
4B 4G\	4d/	.	4G\	.	4B\	.	.	4d/	.	.	4d/	Cre-	.
4B 4G\	4g 4d/	.	4G\	.	4B\	.	.	4d/	.	.	4g/	-do	.
4B 4G\	4b 4d/	.	4G\	.	4B\	.	.	4d/	.	.	4b/	in	.
=71	=71	=71	=71	=71	=71	=71	=71	=71	=71	=71	=71	=71	=71
2.B 2.G\	[2.dd 2.d/	.	4.G\	.	4.B\	.	.	4.d/	.	.	4.dd\	spi-	.
.	.	.	8G\	.	8B\	.	.	8d/	.	.	8dd\	-ri-	.
.	.	.	4G\	.	4B\	.	.	4d/	.	.	4dd\	-tum	.
=72	=72	=72	=72	=72	=72	=72	=72	=72	=72	=72	=72	=72	=72
*	*^	*	*	*	*	*	*	*	*	*	*	*	*
*2\left	*	*	*	*	*	*	*	*	*	*	*	*	*	*
2.A#X 2.G\	4dd/]	2.e\	.	2.G\	.	2.A#X\	.	.	2.e/	.	.	(4dd\	san-	.
.	4cc#X/	.	.	.	.	.	.	.	.	.	.	4cc#X\	.	.
.	4ee/	.	.	.	.	.	.	.	.	.	.	4ee\)	.	.
*	*v	*v	*	*	*	*	*	*	*	*	*	*	*	*
=73	=73	=73	=73	=73	=73	=73	=73	=73	=73	=73	=73	=73	=73
4B 4G\	4dd 4g\	.	4G\	.	4B\	.	.	4g/	.	.	4dd\	-ctum	.
4r	4r	.	4r	.	4r	.	.	4r	.	.	4r	.	.
4r	4r	.	4r	.	4r	.	.	4r	.	.	4r	.	.
=74	=74	=74	=74	=74	=74	=74	=74	=74	=74	=74	=74	=74	=74
*^	*^	*	*	*	*	*	*	*	*	*	*	*	*
*	*2\right	*	*	*	*	*	*	*	*	*	*	*	*	*	*
2d/	2.D\	4a/	2.f#\	.	4D\	.	4d\	.	.	4f#/	.	.	4a/	Do-	.
.	.	4ccn/	.	.	4D\	.	4d\	.	.	4f#/	.	.	4ccn\	-mi-	.
8d/L	.	8b/L	.	.	4D\	.	8d\L	.	.	4f#/	.	.	8b\L	-num	.
8c/J	.	8a/J	.	.	.	.	8c\J	.	.	.	.	.	8a\J	.	.
=75	=75	=75	=75	=75	=75	=75	=75	=75	=75	=75	=75	=75	=75	=75	=75
4B/	2.G\	4dd/	2g\	.	4G\	.	4B\	.	.	4g/	.	.	4dd\	et	.
4d/	.	4b/	.	.	4G\	.	4d\	.	.	4g/	.	.	4b\	vi-	.
4B/	.	4g/	4g\	.	8G\	.	8B\	.	.	8g/	.	.	8g/	-vi-	.
.	.	.	.	.	8G\	.	8B\	.	.	8g/	.	.	8g/	-fi-	.
*v	*v	*	*	*	*	*	*	*	*	*	*	*	*	*	*
=76	=76	=76	=76	=76	=76	=76	=76	=76	=76	=76	=76	=76	=76	=76
2c 2C\	4a/	2e\	.	(2C/	.	2.c\	.	.	(2e/	.	.	(4a\	-can-	.
.	4cc/	.	.	.	.	.	.	.	.	.	.	4cc\	.	.
4D\	8b/L	4f#\	.	4D/)	.	.	.	.	4f#/)	.	.	8b\L	.	.
.	8a/J	.	.	.	.	.	.	.	.	.	.	8a\J)	.	.
*	*v	*v	*	*	*	*	*	*	*	*	*	*	*	*
!!LO:LB:g=original
=77	=77	=77	=77	=77	=77	=77	=77	=77	=77	=77	=77	=77	=77
4B 4G\	4g/	.	4G\	.	4B\	.	.	4g/	.	.	4g/	-tem	.
4G\	4g/	.	4G\	.	4G/	.	.	4g/	.	.	4g/	Et	.
4G\	4g/	.	4G\	.	4G/	.	.	4g/	.	.	4g/	ex-	.
=78	=78	=78	=78	=78	=78	=78	=78	=78	=78	=78	=78	=78	=78
*^	*^	*	*	*	*	*	*	*	*	*	*	*	*
2.G/	2E\	2cc/	2.g\	.	2E\	.	2G/	.	.	2g/	.	.	2cc\	-pec-	.
.	4D\	4b/	.	.	4D\	.	4G/	.	.	4g/	.	.	4b\	-to	.
=79	=79	=79	=79	=79	=79	=79	=79	=79	=79	=79	=79	=79	=79	=79	=79
4.G/	2C\	2ee/	4.e\	.	4.C/	.	4.G/	.	.	4.e/	.	.	4.ee\	re-	.
8A/	.	.	8f#\	.	8C/	.	8A/	.	.	8f#/	.	.	8ee\	-su-	.
4B/	4BB\	4dd/	4g\	.	8BB/	.	8B/	.	.	8g/	.	.	8dd\	-re-	.
.	.	.	.	.	8BB/	.	8B/	.	.	8g/	.	.	8dd\	-cti-	.
*v	*v	*	*	*	*	*	*	*	*	*	*	*	*	*	*
=80	=80	=80	=80	=80	=80	=80	=80	=80	=80	=80	=80	=80	=80	=80
2C/	4.dd/	2g 2e\	.	4.C/	.	4.e\	.	.	4.g/	.	.	4.dd\	-o-	.
.	8cc/L	.	.	8C/	.	8e\	.	.	8g/	.	.	8cc\	-nem	.
4D/	8b/	8gL 8d\	.	8D/	.	8d\	.	.	8g/	.	.	8b\	mor-	.
.	8a/J	8f#J 8c\	.	8D/	.	8c\	.	.	8f#/	.	.	8b\	-tu-	.
*	*v	*v	*	*	*	*	*	*	*	*	*	*	*	*
=81	=81	=81	=81	=81	=81	=81	=81	=81	=81	=81	=81	=81	=81
2G\	2g 2B/	.	4G\	.	4B\	.	.	4g/	.	.	4g/	-o-	.
.	.	.	4G\	.	4B\	.	.	4g/	.	.	4g/	-rum	.
4B 4G\	8g/L	.	4G\	.	4B\	.	.	4g/	.	.	8g/L	et	.
.	8b/J	.	.	.	.	.	.	.	.	.	8b/J	.	.
=82	=82	=82	=82	=82	=82	=82	=82	=82	=82	=82	=82	=82	=82
2.D/	4.a 4.f#/	.	2D/	.	(4.A/	.	.	(4.f#/	.	.	2dd\	vi-	.
.	16bLL 16g/	.	.	.	16B/LL	.	.	16g/LL	.	.	.	.	.
.	16aJJ 16f#/	.	.	.	16A/JJ)	.	.	16f#/JJ)	.	.	.	.	.
.	8gL 8e/	.	8D/	.	8G/	.	.	8e/	.	.	8dd\	-tam	.
.	8aJ 8f#/	.	8D/	.	8A/	.	.	8f#/	.	.	8dd\	ven-	.
=83	=83	=83	=83	=83	=83	=83	=83	=83	=83	=83	=83	=83	=83
4GG/	4b 4g/	.	4G\	.	4B\	.	.	4g/	tu-	.	8dd\L	-tu-	.
.	.	.	.	.	.	.	.	.	.	.	8ee\	.	.
4G\	4b 4g/	.	4G\	.	4B\	.	.	4g/	-ri	.	8dd\	.	.
.	.	.	.	.	.	.	.	.	.	.	8gg\J	.	.
4r	4r	.	4r	.	4r	.	.	4r	.	.	8gg\L	-ri	.
.	.	.	.	.	.	.	.	.	.	.	8ee\J	.	.
=84	=84	=84	=84	=84	=84	=84	=84	=84	=84	=84	=84	=84	=84
2.D/	4.a 4.f#/	.	2D\	.	(4.A/	.	.	(4.f#/	se-	.	2dd\	se-	.
.	16bLL 16g/	.	.	.	16B/LL	.	.	16g/LL	.	.	.	.	.
.	16aJJ 16f#/	.	.	.	16A/JJ)	.	.	16f#/JJ)	.	.	.	.	.
.	8gL 8e/	.	4D\	.	8G/L	.	.	8e/L	-cu-	.	4dd\	-cu-	.
.	8aJ 8f#/	.	.	.	8A/J	.	.	8f#/J	.	.	.	.	.
=85	=85	=85	=85	=85	=85	=85	=85	=85	=85	=85	=85	=85	=85
4GG/	4b 4g/	.	4G\	.	4B\	.	.	4g/	-li	.	8dd\L	-li	.
.	.	.	.	.	.	.	.	.	.	.	8cc#X\J	.	.
4r	4r	.	4r	.	4r	.	.	4r	.	.	8ee\L	A-	.
.	.	.	.	.	.	.	.	.	.	.	8dd\	.	.
4r	4r	.	4r	.	4r	.	.	4r	.	.	8b\	.	.
.	.	.	.	.	.	.	.	.	.	.	8g\J	.	.
=86	=86	=86	=86	=86	=86	=86	=86	=86	=86	=86	=86	=86	=86
*^	*^	*	*	*	*	*	*	*	*	*	*	*	*
(2.c/	2C\	4a/	2e\	.	(2C/	.	2.c\	.	.	(2e/	A-	.	(4a\	.	.
.	.	4cc/	.	.	.	.	.	.	.	.	.	.	4ccn\	.	.
.	4D\	8b/L	4f#\	.	4D/)	.	.	.	.	4f#/)	.	.	8b\L	.	.
.	.	8a/J	.	.	.	.	.	.	.	.	.	.	8a\J)	.	.
*	*	*v	*v	*	*	*	*	*	*	*	*	*	*	*	*
=87	=87	=87	=87	=87	=87	=87	=87	=87	=87	=87	=87	=87	=87	=87
4B/)	4G\	4g/	.	4G\	.	4B\	.	.	4g/	-men	.	4g/	-men	.
4r	2ryy	4r	.	4r	.	4r	.	.	4r	.	.	4r	.	.
4r	.	4r	.	4r	.	4r	.	.	4r	.	.	4r	.	.
*v	*v	*	*	*	*	*	*	*	*	*	*	*	*	*
!!LO:PB:g=original
=88	=88	=88	=88	=88	=88	=88	=88	=88	=88	=88	=88	=88	=88
2.C/	2.a 2.f# 2.c/	.	2.C/	.	2.c\	A-	.	2.e/	.	.	2.g/	A-	.
=89	=89	=89	=89	=89	=89	=89	=89	=89	=89	=89	=89	=89	=89
4GG/	4g 4d 4B/	.	4GG/	.	4B\	-men	.	4d/	.	.	4g/	-men	.
2r	4r	.	4r	.	4r	.	.	4r	.	.	4r	.	.
.	4r	.	4r	.	4r	.	.	4r	.	.	4r	.	.
==	==	==	==	==	==	==	==	==	==	==	==	==	==
*-	*-	*-	*-	*-	*-	*-	*-	*-	*-	*-	*-	*-	*-
!!!system-decoration: s1,s2,s3,s4{(s5,s6)}
!!!RDF**kern: > = above
!!!RDF**kern: < = below
!!!ENC: Marta Lawrence
!!!END: 2021-05-26
!!!ENC: Anastazja Marusiak
!!!END: 2021-05-15
